!!!!SEGMENT: pl-kk--kk-i-389--007-005_anonim--missa-no-7-sanctus.krn
!!!cenid: 17xx:2503
!!!COM: Anonim
!!!COM-rismID: pe30004985
!!!CDT:
!!!CNT:
!!!OPR: [Missa] No. 7.
!!!OTL: Sanctus
!!!OMV: 005
!!!PDT:
!!!AGN: Sacred; Mass
!!!YEC: Copyright 2022 Narodowy Instytut Fryderyka Chopina (https://polishscores.org)
!!!YEM: License CC-BY-4.0 (https://creativecommons.org/licenses/by/4.0)
!!!SMS-siglum: PL-Kk
!!!SMS-shelfmark: Kk.I.389
!!!SMS-variant:
!!!SMS-altvar:
!!!SMS-shelfwork: 007-005 M
!!!NIFC-rismSourceID: 1001146182
!!!NIFC-rismChildID: 1001147245
!!!NIFC-islandoraID: pl-kk:6976
!!!URL-pdf-islandora: https://repozytorium.nifc.pl/islandora/object/pl-kk%3A6976/datastream/PDF/view
!!!URL-scan: https://polish.musicsources.pl/pl/lokalizacje/galeria/rekopisy/5999/1 @EN{Scan on Polish Music Sources Website} @PL{Skany w portalu Dziedzictwo Muzyki Polskiej w otwartym dostępie}
!!!IIIF:
!!!ONB-nifc: UWAGA: S – skan 12-13, A – 31-32, T – 50-51, B – 69-70. Części Mszy: Rorate, Kyrie, Gloria, Graduale, Sanctus, Benedictus, Agnus.
!!!AIN: 1 alto 1 bass 1 soprn 1 tenor
!!!key: F
**kern	**text	**kern	**text	**kern	**text	**kern	**text
*part4	*part4	*part3	*part3	*part2	*part2	*part1	*part1
*staff4	*staff4	*staff3	*staff3	*staff2	*staff2	*staff1	*staff1
*Ibass	*	*Itenor	*	*Ialto	*	*Isoprn	*
*I"Basso.	*	*I"Tenore.	*	*I"Alto.	*	*I"Soprano.	*
*I'B.	*	*I'T.	*	*I'A.	*	*I'S.	*
*I'bass	*	*I'tenor	*	*I'alto	*	*I'soprn	*
*I'Cvox	*	*I'Cvox	*	*I'Cvox	*	*I'Cvox	*
*clefF4	*	*clefC4	*	*clefC3	*	*clefC1	*
*k[b-]	*	*k[b-]	*	*k[b-]	*	*k[b-]	*
*F:	*	*F:	*	*F:	*	*F:	*
*M3/2	*	*M3/2	*	*M3/2	*	*M3/2	*
=1	=1	=1	=1	=1	=1	=1	=1
*	*	*	*	*	*	*all\right	*
2C/	San-	1c	San-	1g	San-	1ee	San-
*2\right	*	*	*	*	*	*	*
2E\	.	.	.	.	.	.	.
*	*	*	*	*2\right	*	*2\right	*
2G\	-ctus	2G/	.	2f\	-ctus	2dd\	-ctus
=2	=2	=2	=2	=2	=2	=2	=2
2c\	san-	2G/	.	2e\	san-	2cc\	San-
2G\	-ctus	2G/	-ctus	2d\	-ctus	2b-\	-ctus
2r	.	2r	.	2r	.	2r	.
=3	=3	=3	=3	=3	=3	=3	=3
*	*	*2\right	*	*	*	*	*
2G\	san-	2B-\	san-	2f\	san-	1.dd	San-
2B-\	.	2d\	.	2g\	.	.	.
2G\	-ctus	2B-\	-ctus	2f\	-ctus	.	.
=4	=4	=4	=4	=4	=4	=4	=4
2c\	San-	2G/	san-	2f\	san-	2dd\	.
2C/	-ctus	2G/	-ctus	2e\	-ctus	2cc\	-ctus
4E\	san-	4G/	san-	4g\	san-	4cc\	san-
4C\	-ctus	4G/	-ctus	4e\	-ctus	4cc\	-ctus
=5	=5	=5	=5	=5	=5	=5	=5
2.F\	Do-	2.c\	Do-	2.a\	Do-	2.cc\	Do-
4F\	-mi-	4c\	-mi-	4a\	-mi-	4cc\	-mi-
2F\	-nus	2c\	-nus	2a\	-nus	2cc\	-nus
!LO:LB:g=original	!	!LO:LB:g=original	!	!LO:LB:g=original	!	!	!
=6	=6	=6	=6	=6	=6	=6	=6
2F\	De-	2A/	De-	2a\	De-	2cc\	De-
2D\	.	2G/	.	2f\	.	2b-\	.
2C/	-us	2G/	-us	2e\	-us	2cc\	-us
!	!	!	!	!	!	!LO:LB:g=original	!
=7	=7	=7	=7	=7	=7	=7	=7
2c\	se-	2G/	Sa-	1e	sa-	1cc	sa-
2B-\	.	2A/	.	.	.	.	.
2F#X\	-ba-	2A/	-ba-	2e\	-ba-	2cc\	-ba-
=8	=8	=8	=8	=8	=8	=8	=8
1G	-ot,	1G	-ot,	1d	-ot,	1b-	-ot,
2r	.	2r	.	2r	.	2r	.
=9	=9	=9	=9	=9	=9	=9	=9
4G\	Ple-	4B-\	Ple-	2f\	Ple-	4dd\	Ple-
4A\	.	4c\	.	.	.	4cc\	.
4B-\	-ni	4d\	-ni-	2f\	-ni	4b-\	-ni
4A\	.	4c\	.	.	.	4cc\	.
4B-\	sunt	4d\	-sunt	2f\	sunt	2dd\	sunt
4G\	.	4B-\	.	.	.	.	.
=10	=10	=10	=10	=10	=10	=10	=10
2c\	ce-	2e\	ce-	2g\	ce-	2cc\	ce-
2G\	.	2d\	.	2f\	.	2b-\	.
2C/	-li	2c\	-li	2e\	-li	2g\	-li
=11	=11	=11	=11	=11	=11	=11	=11
4E\	ce-	2c\	ce-	4g\	ce-	2cc\	ce-
4C\	.	.	.	4e\	.	.	.
4F\	-li	2c\	-li	4a\	-li	2cc\	-li
4E\	.	.	.	4g\	.	.	.
4D\	et	4B-\	et	4f\	et	4b-\	et
4C\	.	4c\	.	4e\	.	4cc\	.
!LO:LB:g=original	!	!LO:LB:g=original	!	!	!	!	!
=12	=12	=12	=12	=12	=12	=12	=12
2G\	ter-	2c\	ter-	2e\	ter-	2g\	ter-
2G\	-ra	2B-\	-ra	2d\	-ra	2g\	-ra
2r	.	2r	.	2r	.	2r	.
!	!	!	!	!LO:LB:g=original	!	!	!
=13	=13	=13	=13	=13	=13	=13	=13
2.G\	glo-	2.B-\	glo-	2.g\	glo-	2.dd\	glo-
4G\	-ri-	4B-\	-ri-	4g\	-ri-	4dd\	-ri-
2G\	-a	2B-\	-a	2g\	-a	2dd\	-a
!	!	!	!	!	!	!LO:PB:g=original	!
=14	=14	=14	=14	=14	=14	=14	=14
2.A\	glo-	2.c\	glo-	2.f#X\	glo-	2.dd\	glo-
4A\	-ri-	4c\	-ri-	4f#\	-ri-	4dd\	-ri-
2A\	-a	2c\	-a	2f#\	-a	2dd\	-a
=15	=15	=15	=15	=15	=15	=15	=15
1B-	glo-	1.G	glo-	1.fn	glo-	1.dd	glo-
2ryy	.	.	.	.	.	.	.
=16	=16	=16	=16	=16	=16	=16	=16
2c\	.	2G/	.	2g\	.	2ee\	.
2B-\	-ri-	2G/	-ri-	2f\	-ri-	2dd\	-ri-
2c\	-a	2G/	-a	2e\	-a	2cc\	-a
=17	=17	=17	=17	=17	=17	=17	=17
2F\	tu-	2A/	tu-	2f\	tu-	2dd\	tu-
2G\	.	1G	.	2e\	.	2cc\	.
2GG/	.	.	.	2d\	.	2b-\	.
=18	=18	=18	=18	=18	=18	=18	=18
1C	-a.	1.G	-a.	1e	-a.	1.cc	-a.
2r	.	.	.	2r	.	.	.
!LO:LB:g=original	!	!LO:LB:g=original	!	!LO:LB:g=original	!	!	!
=19||	=19||	=19||	=19||	=19||	=19||	=19||	=19||
*M2/2	*	*M2/2	*	*M2/2	*	*M2/2	*
*met(C.)	*	*met(C.)	*	*met(C.)	*	*met(C.)	*
!LO:TX:a:t=Osanna.	!	!LO:TX:a:t=Osanna.	!	!LO:TX:a:t=Osanna	!	!LO:TX:a:t=Osanna.	!
2C/	O-	1c	O-	2g\	O-	2ee\	O-
4E\	.	.	.	4e\	.	4cc\	.
4C/	.	.	.	4g\	.	4ee\	.
=20	=20	=20	=20	=20	=20	=20	=20
4G\	-san-	4B-\	-san-	4g\	-san-	4dd\	-san-
4GG/	-na	4B-\	-na	4g\	-na	4dd\	-na,
4r	.	4r	.	4r	.	4r	.
4G\	o-	4B-\	o-	4g\	O-	4dd\	o-
=21	=21	=21	=21	=21	=21	=21	=21
4G\	-san-	4B-\	-san-	4f\	-san-	4dd\	-san-
4G\	-na	4B-\	-na	4f\	-na	4dd\	-na
4B-\	in	4d\	in	4f\	in	4dd\	in
4G\	ex-	4B-\	ex-	4f\	ex-	4dd\	ex-
=22	=22	=22	=22	=22	=22	=22	=22
4c\	-cel-	4G/	-cel-	8e\L	-cel-	4ee\	-cel-
.	.	.	.	8f\J	.	.	.
4C/	-sis	4c\	-sis	4g\	-sis	4ee\	-sis,
4r	.	4r	.	4r	.	4r	.
4C/	O-	4c\	O-	4g\	o-	4ee\	O-
=23	=23	=23	=23	=23	=23	=23	=23
4E\	-san-	2c\	-san-	4g\	-san-	4cc\	-san-
4D\	.	.	.	4f\	.	4dd\	.
!LO:LB:g=original	!	!	!	!	!	!	!
4C/	-na	2c\	-na	4e\	.	4ee\	.
4E\	.	.	.	4g\	-na	4cc\	-na,
!	!	!	!	!LO:LB:g=original	!	!	!
=24	=24	=24	=24	=24	=24	=24	=24
4D/	in	2G/	in	4f\	in	4b-\	in
4C/	.	.	.	4e\	.	4cc\	.
4BB-/	.	2G/	ex-	4d\	.	4dd\	.
4GG/	ex-	.	.	4f\	ex-	4b-\	ex-
!	!	!LO:LB:g=original	!	!	!	!LO:LB:g=original	!
=25	=25	=25	=25	=25	=25	=25	=25
4C\	-cel-	1G	-cel-	2e\	-cel-	2cc\	-cel-
4E\	.	.	.	.	.	.	.
4G\	.	.	.	2d\	.	2b-\	.
4GG/	.	.	.	.	.	.	.
=26	=26	=26	=26	=26	=26	=26	=26
2C/	-sis	2G/	-sis	2e\	-sis	2cc\	-sis,
4r	.	4r	.	4r	.	4r	.
4C/	o-	4c\	O-	4g\	o-	4ee\	O-
=27	=27	=27	=27	=27	=27	=27	=27
4E\	-san-	2c\	-san-	4g\	-san-	4cc\	-san-
4D\	.	.	.	4f\	.	4dd\	.
4C\	.	2c\	-na	4e\	.	4ee\	.
4E\	-na	.	.	4g\	-na	4cc\	-na
=28	=28	=28	=28	=28	=28	=28	=28
4D/	in	2G/	in	4f\	in	4b-\	in
4C/	.	.	.	4e\	.	4cc\	.
4BB-/	.	2G/	ex-	4d\	.	4dd\	.
4GG/	ex-	.	.	4f\	ex-	4b-\	ex-
=29	=29	=29	=29	=29	=29	=29	=29
4C\	-cel-	1G	-cel-	2e\	-cel-	2cc\	-cel-
4E\	.	.	.	.	.	.	.
4G\	.	.	.	2d\	.	2b-\	.
4GG/	.	.	.	.	.	.	.
=30	=30	=30	=30	=30	=30	=30	=30
2C/	-sis.	1G	-sis.	1e	-sis.	2cc\	-sis.
2r	.	.	.	.	.	2r	.
==	==	==	==	==	==	==	==
*-	*-	*-	*-	*-	*-	*-	*-
!!!system-decoration: [(s1,s2,s3,s4)]
!!!ENC: Berenika Jozajtis
!!!END: 2023-11-11
!!!ENC: Leszek Kubiak
!!!END: 2024-01-10
